src/build/icons/LineIcons/upload.svg

<svg width="40" height="32" version="1.1" viewBox="0 -2 40 32" xmlns="http://www.w3.org/2000/svg">
 <g fill="none" fill-rule="evenodd">
  <g transform="translate(-460,-1137)" fill="#f00">
   <path d="m489 1161h-17s-6.038-0.62-6-6c0.021-3.04 2.688-5.82 6-6 0-4.14 2.65-8 7-8 3.433 0 5.723 2.1 6.538 5.01 4.955-0.21 8.306 3.71 8.462 6.99 0.135 2.83-2.32 6.48-5 8zm-1.933-16.97c-1.468-2.98-4.524-5.03-8.067-5.03-4.749 0-8.63 3.68-8.967 8.34-3.491 1-6.033 4.05-6.033 7.66 0 4.26 3.54 7.73 8 7.98l17 0.02c3.437-1.49 7-5.65 7-9.5 0-5.06-3.951-9.18-8.933-9.47zm-6.29 1.25c-0.209-0.21-0.487-0.3-0.761-0.28-0.275-0.02-0.552 0.07-0.762 0.28l-5.941 5.91c-0.392 0.4-0.392 1.03 0 1.42 0.394 0.39 1.031 0.39 1.423 0l4.264-4.24v9.62c0 0.55 0.447 1 1 1s1-0.45 1-1v-9.65l4.295 4.27c0.393 0.39 1.03 0.39 1.423 0 0.392-0.39 0.392-1.02 0-1.42l-5.941-5.91z"/>
  </g>
 </g>
</svg>

<svg width="40px" height="32px" viewBox="0 0 40 32" version="1.1" xmlns="http://www.w3.org/2000/svg" xmlns:xlink="http://www.w3.org/1999/xlink">
    <defs>
        <filter x="-1.7%" y="-0.9%" width="103.4%" height="101.8%" filterUnits="objectBoundingBox" id="filter-1">
            <feOffset dx="0" dy="2" in="SourceAlpha" result="shadowOffsetOuter1"></feOffset>
            <feGaussianBlur stdDeviation="2" in="shadowOffsetOuter1" result="shadowBlurOuter1"></feGaussianBlur>
            <feColorMatrix values="0 0 0 0 0   0 0 0 0 0   0 0 0 0 0  0 0 0 0.5 0" type="matrix" in="shadowBlurOuter1" result="shadowMatrixOuter1"></feColorMatrix>
            <feMerge>
                <feMergeNode in="shadowMatrixOuter1"></feMergeNode>
                <feMergeNode in="SourceGraphic"></feMergeNode>
            </feMerge>
        </filter>
    </defs>
    <g id="Page-1" stroke="none" stroke-width="1" fill="none" fill-rule="evenodd">
        <g id="Icon-Set" filter="url(#filter-1)" transform="translate(-460.000000, -1137.000000)" fill="#FFFFFE">
            <path d="M489,1161 L472,1161 C472,1161 465.962,1160.38 466,1155 C466.021,1151.96 468.688,1149.18 472,1149 C472,1144.86 474.65,1141 479,1141 C482.433,1141 484.723,1143.1 485.538,1146.01 C490.493,1145.8 493.844,1149.72 494,1153 C494.135,1155.83 491.68,1159.48 489,1161 L489,1161 Z M487.067,1144.03 C485.599,1141.05 482.543,1139 479,1139 C474.251,1139 470.37,1142.68 470.033,1147.34 C466.542,1148.34 464,1151.39 464,1155 C464,1159.26 467.54,1162.73 472,1162.98 L489,1163 C492.437,1161.51 496,1157.35 496,1153.5 C496,1148.44 492.049,1144.32 487.067,1144.03 L487.067,1144.03 Z M480.777,1145.28 C480.568,1145.07 480.29,1144.98 480.016,1145 C479.741,1144.98 479.464,1145.07 479.254,1145.28 L473.313,1151.19 C472.921,1151.59 472.921,1152.22 473.313,1152.61 C473.707,1153 474.344,1153 474.736,1152.61 L479,1148.37 L479,1157.99 C479,1158.54 479.447,1158.99 480,1158.99 C480.553,1158.99 481,1158.54 481,1157.99 L481,1148.34 L485.295,1152.61 C485.688,1153 486.325,1153 486.718,1152.61 C487.11,1152.22 487.11,1151.59 486.718,1151.19 L480.777,1145.28 L480.777,1145.28 Z" id="Fill-15"></path>
        </g>
    </g>
</svg>
